X:52
T:Over the Water to Charlie. JGi.052
M:6/8
L:1/8
N: No Key signature in MS but would appear to be in D
Q:3/8=90
S:Joshua Gibbons MS,1823,Tealby,Lincs.
R:jig
O:Tealby,Lincolnshire
Z:VMP/R.Greig, 2009
K:D
DFA AFA|BdB AFD|DFA AFA|B3 d2z|DFA AFA|BdB AFD|dfd ecA|B3d2z:|
|:dfd ecA|BdB AFD|dfd ecA|B3d2z|faf ecA|BdB AFD|DFA AFA|B3d2z:|

